X:0780
M:C
L:1/8
Q:1/4=120
K:D
g|f<df<a e<g``Tf>e|fdfa   B/B/B Bf |(d/e/f/g/) af e>def |dBAF D/D/D Dg|
  f<df<a e<g``Tf>e|f<df<a B/B/B B>g| f<da<f       e<gf>e|dBAF D/D/D D|]

